packages/ui-icons/src/Basic/32/Phone_32.svg

<svg xmlns="http://www.w3.org/2000/svg" viewBox="0 0 40 40"><path d="M26 36a4 4 0 0 0 4-4V8a4 4 0 0 0-4-4H14a4 4 0 0 0-4 4v24a4 4 0 0 0 4 4Zm-14-4V8a2 2 0 0 1 2-2h12a2 2 0 0 1 2 2v24a2 2 0 0 1-2 2H14a2 2 0 0 1-2-2Zm12-22h-8V8h8Zm-2 20a2 2 0 1 1-2-2 2 2 0 0 1 2 2Z"/></svg>

<svg id="Ready" xmlns="http://www.w3.org/2000/svg" viewBox="0 0 40 40"><title>Megaicons_work_32_1.8_cp</title><path d="M26,36a4,4,0,0,0,4-4V8a4,4,0,0,0-4-4H14a4,4,0,0,0-4,4V32a4,4,0,0,0,4,4ZM12,32V8a2,2,0,0,1,2-2H26a2,2,0,0,1,2,2V32a2,2,0,0,1-2,2H14A2,2,0,0,1,12,32ZM24,10H16V8h8ZM22,30a2,2,0,1,1-2-2A2,2,0,0,1,22,30Z"/></svg>
